X:334
T:St. Sebastian. JaW.334
M:6/8
L:1/8
Q:3/8=120
S:James Winder Ms, Lancashire, 1835-41
R:.Quadrille
O:England
A:Wyresdale,Lancashire
Z:vmp.Chris Partington, Aug 2004
K:C
E|G2G GEG|c2c cGc|d2d {e}d^cd|e2e c2E|!
G2G GEG|c2c cGc|d2d {e}d^cd|ccc c2:|!
|:g|g2g ecg|g2g fdg|g2g c’2a|{g}^fef g2g|!
g2g ecg|g2g ” NB1″fdg|g2g (ba)b|” NB2″c’3-c’2:|!
|:g|e2g e2g|(fd).g ec.g|e2g e2g|gfe d2g|!
e2g e2g|(fd).g (ec).g|e2ge2g|fed c2:|

